SVG_Azure_Grouped/Deployment/REST.svg

<?xml version="1.0" encoding="UTF-8" standalone="no"?>
<!-- Generated by Microsoft Visio, SVG Export REST.svg Page-1 -->

<svg
   xmlns:dc="http://purl.org/dc/elements/1.1/"
   xmlns:cc="http://creativecommons.org/ns#"
   xmlns:rdf="http://www.w3.org/1999/02/22-rdf-syntax-ns#"
   xmlns:svg="http://www.w3.org/2000/svg"
   xmlns="http://www.w3.org/2000/svg"
   xmlns:sodipodi="http://sodipodi.sourceforge.net/DTD/sodipodi-0.dtd"
   xmlns:inkscape="http://www.inkscape.org/namespaces/inkscape"
   width="0.55680788in"
   height="0.55682003in"
   viewBox="0 0 40.090166 40.091142"
   xml:space="preserve"
   class="st4"
   version="1.1"
   id="svg29"
   sodipodi:docname="REST.svg"
   style="font-size:12px;overflow:visible;color-interpolation-filters:sRGB;fill:none;fill-rule:evenodd;stroke-linecap:square;stroke-miterlimit:3"
   inkscape:version="0.92.5 (2060ec1f9f, 2020-04-08)"><metadata
   id="metadata35"><rdf:RDF><cc:Work
       rdf:about=""><dc:format>image/svg+xml</dc:format><dc:type
         rdf:resource="http://purl.org/dc/dcmitype/StillImage" /></cc:Work></rdf:RDF></metadata><defs
   id="defs33" /><sodipodi:namedview
   pagecolor="#ffffff"
   bordercolor="#666666"
   borderopacity="1"
   objecttolerance="10"
   gridtolerance="10"
   guidetolerance="10"
   inkscape:pageopacity="0"
   inkscape:pageshadow="2"
   inkscape:window-width="640"
   inkscape:window-height="480"
   id="namedview31"
   showgrid="false"
   inkscape:zoom="1.8365233"
   inkscape:cx="26.725163"
   inkscape:cy="7.8276326"
   inkscape:window-x="0"
   inkscape:window-y="0"
   inkscape:window-maximized="0"
   inkscape:current-layer="svg29" />
	<style
   type="text/css"
   id="style2">
	<![CDATA[
		.st1 {fill:#004b1c;stroke:none;stroke-linecap:butt;stroke-width:8.97581}
		.st2 {fill:#006020;stroke:none;stroke-linecap:butt;stroke-width:8.97581}
		.st3 {fill:#ffffff;stroke:none;stroke-linecap:butt;stroke-width:8.97581}
		.st4 {fill:none;fill-rule:evenodd;font-size:12px;overflow:visible;stroke-linecap:square;stroke-miterlimit:3}
	]]>
	</style>

	<g
   id="g27"
   transform="translate(-13.971914,-13.968596)">
		<title
   id="title4">Page-1</title>
		<g
   id="group17124-1"
   transform="translate(5.66929,-34.0157)">
			<title
   id="title6">REST.17124</title>
			<g
   id="group17125-2">
				<title
   id="title8">layer1</title>
				<g
   id="shape17126-3"
   transform="rotate(-45,14.173193,62.160671)">
					<title
   id="title10">circle2</title>
					<circle
   cx="20.044001"
   cy="76.334"
   class="st1"
   id="ellipse12"
   r="20.044001"
   style="fill:#004b1c;stroke:none;stroke-width:8.97581005;stroke-linecap:butt" />
				</g>
				<g
   id="shape17127-5"
   transform="translate(14.1703,-14.1732)">
					<title
   id="title15">path4</title>
					<path
   d="m 28.35,68.03 a 20.044,20.044 0 0 1 0,28.35 L 0,68.03 a 20.044,20.044 0 0 1 28.35,0 z"
   class="st2"
   id="path17"
   inkscape:connector-curvature="0"
   style="fill:#006020;stroke:none;stroke-width:8.97581005;stroke-linecap:butt" />
				</g>
				<g
   id="shape17128-7"
   transform="translate(13.0582,-22.9795)">
					<title
   id="title20">path6</title>
					<path
   d="M 6.41,96.18 4.64,92.81 A 6.69857,6.69857 -180 0 0 4.13,91.97 2.61865,2.61865 -180 0 0 3.62,91.44 1.69404,1.69404 -180 0 0 3.06,91.15 2.41174,2.41174 -180 0 0 2.41,91.07 H 1.06 v 5.11 H 0 V 84.41 h 3.39 a 4.2157,4.2157 0 0 1 1.29,0.19 3.40748,3.40748 0 0 1 1.11,0.59 2.84495,2.84495 0 0 1 0.77,0.97 2.9872,2.9872 0 0 1 0.29,1.35 3.38161,3.38161 0 0 1 -0.18,1.15 2.9484,2.9484 0 0 1 -0.54,0.93 3.18764,3.18764 0 0 1 -0.85,0.69 4.03466,4.03466 0 0 1 -1.12,0.42 v 0.03 a 1.81042,1.81042 0 0 1 0.44,0.26 2.61865,2.61865 0 0 1 0.38,0.37 4.78469,4.78469 0 0 1 0.36,0.51 c 0.12,0.19 0.25,0.41 0.38,0.65 l 1.97,3.66 z M 1.06,85.41 v 4.66 H 3 A 3.2329,3.2329 -180 0 0 4.09,89.89 2.40528,2.40528 -180 0 0 4.93,89.4 2.22423,2.22423 -180 0 0 5.47,88.63 2.58632,2.58632 -180 0 0 5.66,87.62 2.04319,2.04319 -180 0 0 5.02,86 2.78676,2.78676 -180 0 0 3.08,85.41 Z M 9.27,96.18 V 84.41 h 5.74 v 1 h -4.65 v 4.31 h 4.28 v 0.98 h -4.28 v 4.48 h 4.93 v 1 z m 7.58,-1.72 a 4.12518,4.12518 -180 0 0 0.65,0.4 5.25669,5.25669 -180 0 0 1.48,0.48 4.41614,4.41614 -180 0 0 0.72,0.06 3.2329,3.2329 -180 0 0 2.01,-0.52 1.77163,1.77163 -180 0 0 0.64,-1.48 1.99793,1.99793 -180 0 0 -0.15,-0.82 2.02379,2.02379 -180 0 0 -0.49,-0.64 5.01099,5.01099 -180 0 0 -0.83,-0.61 C 20.55,91.14 20.15,90.92 19.7,90.69 19.25,90.46 18.82,90.2 18.41,89.91 a 4.7071,4.7071 0 0 1 -0.88,-0.75 2.5152,2.5152 0 0 1 -0.5,-0.83 2.96134,2.96134 0 0 1 -0.16,-1 2.65744,2.65744 0 0 1 0.3,-1.3 2.9872,2.9872 0 0 1 0.82,-0.96 3.78249,3.78249 0 0 1 1.21,-0.62 4.99806,4.99806 0 0 1 1.48,-0.21 6.11018,6.11018 0 0 1 2.33,0.39 v 1.21 a 4.82348,4.82348 -180 0 0 -2.42,-0.65 3.73723,3.73723 -180 0 0 -0.99,0.13 2.58632,2.58632 -180 0 0 -0.82,0.38 1.80396,1.80396 -180 0 0 -0.55,0.61 1.7393,1.7393 -180 0 0 -0.2,0.85 2.09492,2.09492 -180 0 0 0.14,0.79 1.88155,1.88155 -180 0 0 0.43,0.64 4.11871,4.11871 -180 0 0 0.79,0.59 c 0.32,0.2 0.72,0.41 1.2,0.65 a 14.3929,14.3929 0 0 1 1.29,0.77 5.03686,5.03686 0 0 1 0.92,0.78 2.85788,2.85788 0 0 1 0.54,0.86 2.7415,2.7415 0 0 1 0.18,1.01 3.06479,3.06479 0 0 1 -0.28,1.36 2.64451,2.64451 0 0 1 -0.84,0.99 3.67257,3.67257 0 0 1 -1.23,0.58 5.88388,5.88388 0 0 1 -1.57,0.2 A 5.81922,5.81922 0 0 1 18.96,96.33 7.6943,7.6943 0 0 1 18.18,96.2 7.27402,7.27402 0 0 1 17.43,96 2.71563,2.71563 0 0 1 16.85,95.74 Z M 28.9,85.41 V 96.18 H 27.81 V 85.41 h -3.4 v -1 h 7.89 v 1 z"
   class="st3"
   id="path22"
   inkscape:connector-curvature="0"
   style="fill:#ffffff;stroke:none;stroke-width:8.97581005;stroke-linecap:butt" />
				</g>
			</g>
		</g>
	</g>
</svg>

<?xml version="1.0" encoding="UTF-8" standalone="no"?>
<!DOCTYPE svg PUBLIC "-//W3C//DTD SVG 1.1//EN" "http://www.w3.org/Graphics/SVG/1.1/DTD/svg11.dtd">
<!-- Generated by Microsoft Visio, SVG Export REST.svg Page-1 -->
<svg xmlns="http://www.w3.org/2000/svg" xmlns:xlink="http://www.w3.org/1999/xlink" xmlns:ev="http://www.w3.org/2001/xml-events"
		width="0.944882in" height="1.33858in" viewBox="0 0 68.0315 96.378" xml:space="preserve" color-interpolation-filters="sRGB"
		class="st4">
	<style type="text/css">
	<![CDATA[
		.st1 {fill:#004b1c;stroke:none;stroke-linecap:butt;stroke-width:8.97581}
		.st2 {fill:#006020;stroke:none;stroke-linecap:butt;stroke-width:8.97581}
		.st3 {fill:#ffffff;stroke:none;stroke-linecap:butt;stroke-width:8.97581}
		.st4 {fill:none;fill-rule:evenodd;font-size:12px;overflow:visible;stroke-linecap:square;stroke-miterlimit:3}
	]]>
	</style>

	<g>
		<title>Page-1</title>
		<g id="group16731-1" transform="translate(5.66929,-34.0157)">
			<title>REST.16731</title>
			<g id="group16732-2">
				<title>layer1</title>
				<g id="shape16733-3" transform="translate(-39.803,28.2284) rotate(-45)">
					<title>circle2</title>
					<ellipse cx="20.044" cy="76.334" rx="20.044" ry="20.044" class="st1"/>
				</g>
				<g id="shape16734-5" transform="translate(14.1703,-14.1732)">
					<title>path4</title>
					<path d="M28.35 68.03 A20.044 20.044 0 0 1 28.35 96.38 L0 68.03 A20.044 20.044 0 0 1 28.35 68.03 Z" class="st2"/>
				</g>
				<g id="shape16735-7" transform="translate(13.0582,-22.9795)">
					<title>path6</title>
					<path d="M6.41 96.18 L4.64 92.81 A6.69857 6.69857 -180 0 0 4.13 91.97 A2.61865 2.61865 -180 0 0 3.62 91.44 A1.69404
								 1.69404 -180 0 0 3.06 91.15 A2.41174 2.41174 -180 0 0 2.41 91.07 L1.06 91.07 L1.06 96.18 L0 96.18
								 L0 84.41 L3.39 84.41 A4.2157 4.2157 0 0 1 4.68 84.6 A3.40748 3.40748 0 0 1 5.79 85.19 A2.84495 2.84495
								 0 0 1 6.56 86.16 A2.9872 2.9872 0 0 1 6.85 87.51 A3.38161 3.38161 0 0 1 6.67 88.66 A2.9484 2.9484
								 0 0 1 6.13 89.59 A3.18764 3.18764 0 0 1 5.28 90.28 A4.03466 4.03466 0 0 1 4.16 90.7 L4.16 90.73
								 A1.81042 1.81042 0 0 1 4.6 90.99 A2.61865 2.61865 0 0 1 4.98 91.36 A4.78469 4.78469 0 0 1 5.34 91.87
								 C5.46 92.06 5.59 92.28 5.72 92.52 L7.69 96.18 L6.41 96.18 ZM1.06 85.41 L1.06 90.07 L3 90.07 A3.2329
								 3.2329 -180 0 0 4.09 89.89 A2.40528 2.40528 -180 0 0 4.93 89.4 A2.22423 2.22423 -180 0 0 5.47 88.63
								 A2.58632 2.58632 -180 0 0 5.66 87.62 A2.04319 2.04319 -180 0 0 5.02 86 A2.78676 2.78676 -180 0 0
								 3.08 85.41 L1.06 85.41 ZM9.27 96.18 L9.27 84.41 L15.01 84.41 L15.01 85.41 L10.36 85.41 L10.36 89.72
								 L14.64 89.72 L14.64 90.7 L10.36 90.7 L10.36 95.18 L15.29 95.18 L15.29 96.18 L9.27 96.18 ZM16.85
								 94.46 A4.12518 4.12518 -180 0 0 17.5 94.86 A5.25669 5.25669 -180 0 0 18.98 95.34 A4.41614 4.41614
								 -180 0 0 19.7 95.4 A3.2329 3.2329 -180 0 0 21.71 94.88 A1.77163 1.77163 -180 0 0 22.35 93.4 A1.99793
								 1.99793 -180 0 0 22.2 92.58 A2.02379 2.02379 -180 0 0 21.71 91.94 A5.01099 5.01099 -180 0 0 20.88
								 91.33 C20.55 91.14 20.15 90.92 19.7 90.69 C19.25 90.46 18.82 90.2 18.41 89.91 A4.7071 4.7071 0 0
								 1 17.53 89.16 A2.5152 2.5152 0 0 1 17.03 88.33 A2.96134 2.96134 0 0 1 16.87 87.33 A2.65744 2.65744
								 0 0 1 17.17 86.03 A2.9872 2.9872 0 0 1 17.99 85.07 A3.78249 3.78249 0 0 1 19.2 84.45 A4.99806 4.99806
								 0 0 1 20.68 84.24 A6.11018 6.11018 0 0 1 23.01 84.63 L23.01 85.84 A4.82348 4.82348 -180 0 0 20.59
								 85.19 A3.73723 3.73723 -180 0 0 19.6 85.32 A2.58632 2.58632 -180 0 0 18.78 85.7 A1.80396 1.80396
								 -180 0 0 18.23 86.31 A1.7393 1.7393 -180 0 0 18.03 87.16 A2.09492 2.09492 -180 0 0 18.17 87.95 A1.88155
								 1.88155 -180 0 0 18.6 88.59 A4.11871 4.11871 -180 0 0 19.39 89.18 C19.71 89.38 20.11 89.59 20.59
								 89.83 A14.3929 14.3929 0 0 1 21.88 90.6 A5.03686 5.03686 0 0 1 22.8 91.38 A2.85788 2.85788 0 0 1
								 23.34 92.24 A2.7415 2.7415 0 0 1 23.52 93.25 A3.06479 3.06479 0 0 1 23.24 94.61 A2.64451 2.64451
								 0 0 1 22.4 95.6 A3.67257 3.67257 0 0 1 21.17 96.18 A5.88388 5.88388 0 0 1 19.6 96.38 A5.81922 5.81922
								 0 0 1 18.96 96.33 A7.6943 7.6943 0 0 1 18.18 96.2 A7.27402 7.27402 0 0 1 17.43 96 A2.71563 2.71563
								 0 0 1 16.85 95.74 L16.85 94.46 ZM28.9 85.41 L28.9 96.18 L27.81 96.18 L27.81 85.41 L24.41 85.41 L24.41
								 84.41 L32.3 84.41 L32.3 85.41 L28.9 85.41 Z" class="st3"/>
				</g>
			</g>
		</g>
	</g>
</svg>
